src/assets/svg_icons/deezer.svg

<svg width="279" height="279" viewBox="0 0 279 279" fill="none" xmlns="http://www.w3.org/2000/svg">
<path fill-rule="evenodd" clip-rule="evenodd" d="M232.97 42.8737C235.539 27.9837 239.309 18.6204 243.485 18.6026H243.493C251.28 18.6294 257.592 51.1012 257.592 91.1924C257.592 131.284 251.271 163.782 243.476 163.782C240.28 163.782 237.331 158.264 234.957 149.017C231.205 182.867 223.419 206.136 214.405 206.136C207.431 206.136 201.172 192.158 196.97 170.114C194.101 212.038 186.88 241.783 178.44 241.783C173.143 241.783 168.314 229.996 164.739 210.804C160.44 250.421 150.508 278.18 138.926 278.18C127.344 278.18 117.394 250.43 113.113 210.804C109.564 229.996 104.735 241.783 99.4118 241.783C90.9722 241.783 83.7686 212.038 80.8818 170.114C76.6797 192.158 70.4383 206.136 63.4465 206.136C54.442 206.136 46.6469 182.875 42.895 149.017C40.5379 158.291 37.5717 163.782 34.376 163.782C26.5809 163.782 20.26 131.284 20.26 91.1924C20.26 51.1012 26.5809 18.6026 34.376 18.6026C38.5604 18.6026 42.3035 27.9926 44.8989 42.8737C49.0569 17.1985 55.8103 0.510986 63.4465 0.510986C72.5129 0.510986 80.3698 24.1114 84.0864 58.3808C87.7235 33.4389 93.241 17.5383 99.4206 17.5383C108.081 17.5383 115.443 48.8118 118.171 92.4355C123.3 70.0692 130.725 56.0377 138.944 56.0377C147.162 56.0377 154.587 70.0781 159.707 92.4355C162.444 48.8118 169.797 17.5383 178.458 17.5383C184.628 17.5383 190.137 33.4389 193.792 58.3808C197.5 24.1114 205.357 0.510986 214.423 0.510986C222.033 0.510986 228.812 17.2075 232.97 42.8737ZM0.0891113 84.0528C0.0891113 66.1311 3.67328 51.5989 8.0961 51.5989C12.5189 51.5989 16.1031 66.1311 16.1031 84.0528C16.1031 101.974 12.5189 116.507 8.0961 116.507C3.67328 116.507 0.0891113 101.974 0.0891113 84.0528ZM261.743 84.0528C261.743 66.1311 265.327 51.5989 269.75 51.5989C274.172 51.5989 277.757 66.1311 277.757 84.0528C277.757 101.974 274.172 116.507 269.75 116.507C265.327 116.507 261.743 101.974 261.743 84.0528Z" fill="#000000"/>
</svg>

<svg
  xmlns="http://www.w3.org/2000/svg"
  width="279"
  height="279"
  fill="none"
  xmlns:v="https://vecta.io/nano"
>
  <path
    fill-rule="evenodd"
    d="M232.97 42.874c2.569-14.89 6.339-24.253 10.515-24.271h.008c7.787.027 14.099 32.499 14.099 72.59s-6.321 72.59-14.116 72.59c-3.196 0-6.145-5.518-8.519-14.765-3.752 33.85-11.538 57.119-20.552 57.119-6.974 0-13.233-13.978-17.435-36.022-2.869 41.924-10.09 71.669-18.53 71.669-5.297 0-10.126-11.787-13.701-30.979-4.299 39.617-14.231 67.376-25.813 67.376s-21.532-27.75-25.813-67.376c-3.549 19.192-8.378 30.979-13.701 30.979-8.44 0-15.643-29.745-18.53-71.669-4.202 22.044-10.443 36.022-17.435 36.022-9.004 0-16.8-23.261-20.551-57.119-2.357 9.274-5.323 14.765-8.519 14.765-7.795 0-14.116-32.498-14.116-72.59s6.321-72.59 14.116-72.59c4.184 0 7.928 9.39 10.523 24.271C49.057 17.199 55.81.511 63.447.511c9.066 0 16.923 23.6 20.64 57.87 3.637-24.942 9.155-40.842 15.334-40.842 8.66 0 16.022 31.274 18.75 74.897 5.129-22.366 12.554-36.398 20.773-36.398s15.643 14.04 20.763 36.398c2.737-43.624 10.09-74.897 18.751-74.897 6.17 0 11.679 15.901 15.334 40.843C197.5 24.111 205.357.511 214.423.511c7.61 0 14.389 16.697 18.547 42.363zM.089 84.053c0-17.922 3.584-32.454 8.007-32.454s8.007 14.532 8.007 32.454-3.584 32.454-8.007 32.454S.089 101.974.089 84.053zm261.654 0c0-17.922 3.584-32.454 8.007-32.454s8.007 14.532 8.007 32.454-3.585 32.454-8.007 32.454-8.007-14.533-8.007-32.454z"
    fill="#000"
  />
</svg>
